!!!COM: Angelo Berardi
!!!OPR: Documenti Armonici
!!!ONB: Canon at the octave below after a minim, CF below
!!!PPR: Giacomo Monti
!!!PDT: 1687
!!!PPP: Bologna
!!!ONB: Reprint ed., Bologna: Forni., 1970.  Bk II pp. 105-106.
!!!ONB: Transcribed from Angelo Berardi, Documenti Armonici, 1687,
**kern	**kern	**kern
*CF	*conseq	*guida
*k[]	*k[]	*k[]
*M4/4	*M4/4	*M4/4
=1-	=1-	=1-
1D	2r	4d
.	.	4.f
.	4D	.
.	.	8g
.	[4F	[4a
=2	=2	=2
1F	8F]	8a]
.	8G	8b
.	4.A	4.cc
.	8B	8dd
.	[4c	4ee
=3	=3	=3
1C	8c]	2e
.	8d	.
.	4e	.
.	2E	4r
.	.	4g
=4	=4	=4
1G	4r	4.b
.	4G	.
.	.	8cc
.	4.B	4dd
.	.	8d
.	8c	8e
=5	=5	=5
1D	4d	8f
.	.	8g
.	8D	4.a
.	8E	.
.	8F	.
.	8G	8b
.	[4A	[4cc
=6	=6	=6
1A	8A]	8cc]
.	8B	8dd
.	4.c	4ee
.	.	4r
.	8d	.
.	4e	4ee
=7	=7	=7
1G	4r	4.b
.	4e	.
.	.	8cc
.	4.B	4dd
.	.	4dd
.	8c	.
=8	=8	=8
1F	4d	4.a
.	4d	.
.	.	8b
.	4.A	4cc
.	.	4cc
.	8B	.
=9	=9	=9
1E	4c	4.g
.	4c	.
.	.	8a
.	4.G	4b
.	.	4b
.	8A	.
=10	=10	=10
[1D	4B	4.b
.	4B	.
.	.	8cc
.	4.B	4dd
.	.	4d
.	8c	.
=11	=11	=11
1D]	4d	4.f
.	4D	.
.	.	8g
.	4.F	4.a
.	8G	8g
=12	=12	=12
[1D	4.A	4f
.	.	4b-
.	8G	.
.	4F	4a
.	4B-	4g
=13	=13	=13
1D]	4A	4f
.	4G	4g
.	4F	4a
.	4G	[4f
=14	=14	=14
[1D	[1A	4f]
.	.	4f#
.	.	4.f#
.	.	8e
=15	=15	=15
1D_	1A_	[1f#
=16	=16	=16
1D]	1A]	1f#]
==	==	==
*-	*-	*-
!!!CDT: ~1636//-1694/4/9
!!!CNT: Italia
!!!ODT: <1687//
!!!YEP: David Huron and Denis Collins
!!!YEN: Canada
!!!AIN: vox; ?
!!!AST: polyphony
!!!RDT: 1995 July 3
!!!YED: 1995 August 31
!!!AFR: cantus firmus canon
!!!AMT: simple quadruple
!!!EEV: 1.0
